img/svg/icon-font/private.svg

<svg width="22" height="22" viewBox="0 0 22 22" fill="none" xmlns="http://www.w3.org/2000/svg">
<g clip-path="url(#clip0)">
<path fill-rule="evenodd" clip-rule="evenodd" d="M19.8516 6.37349V6.98751C21.1885 7.89376 22 9.40296 22 11.0413C22 12.6107 21.3552 13.9386 20.1353 14.8812C19.1151 15.6695 18.0967 15.88 18.0865 15.882C18.0296 15.8934 17.9729 15.8989 17.917 15.8989C17.5158 15.8989 17.157 15.6164 17.0753 15.2079C16.9826 14.7446 17.2813 14.2938 17.7431 14.1979C17.8168 14.1803 20.2812 13.5637 20.2812 11.0413C20.2812 9.86147 19.6329 8.78442 18.5893 8.23055C18.292 8.07277 18.1263 7.7652 18.1338 7.4502C18.1337 7.44716 18.1335 7.44414 18.1333 7.44113C18.1331 7.43758 18.1328 7.43403 18.1328 7.43043V6.37349C18.1328 4.09133 16.2761 2.23465 13.994 2.23465C11.9715 2.23465 10.2134 3.73886 9.9043 5.73359C9.85325 6.06299 9.61636 6.33318 9.29646 6.42681C8.97656 6.52044 8.63135 6.42062 8.41079 6.17076C8.01058 5.71735 7.43514 5.45731 6.83207 5.45731C5.6711 5.45731 4.72661 6.4018 4.72661 7.56278V9.10965C4.72661 9.58428 4.34186 9.96903 3.86723 9.96903H3.86061C2.67962 9.96903 1.71879 10.9135 1.71879 12.0745C1.71879 13.2551 2.62475 14.18 3.78129 14.18H4.25395C4.72858 14.18 5.11332 14.5647 5.11332 15.0393C5.11332 15.514 4.72858 15.8987 4.25395 15.8987H3.78125C2.75576 15.8987 1.79957 15.4985 1.08883 14.7719C0.386719 14.0539 0 13.096 0 12.0745C0 10.2561 1.28812 8.72994 3.00781 8.34429V7.56278C3.00781 5.45408 4.72334 3.73856 6.83203 3.73856C7.44292 3.73856 8.03804 3.88525 8.57098 4.15754C8.91761 3.31063 9.46168 2.54862 10.1648 1.94074C11.2276 1.0219 12.5875 0.5159 13.994 0.5159C17.2239 0.5159 19.8516 3.14361 19.8516 6.37349ZM13.5774 13.4919V14.1953C14.6412 14.3228 15.4688 15.2302 15.4688 16.3278V20.6247C15.4688 21.0993 15.084 21.484 14.6094 21.484H7.39062C6.91599 21.484 6.53125 21.0993 6.53125 20.6247V16.3278C6.53125 15.2307 7.35801 14.3236 8.42114 14.1955V13.4919C8.42114 12.0943 9.57769 10.9573 10.9993 10.9573C12.4208 10.9573 13.5774 12.0943 13.5774 13.4919ZM10.9993 12.6761C10.5254 12.6761 10.1399 13.042 10.1399 13.4919V14.1794H11.8586V13.4919C11.8586 13.042 11.4731 12.6761 10.9993 12.6761ZM8.25 19.7653H13.75V16.3278C13.75 16.0909 13.5572 15.8981 13.3203 15.8981H8.67969C8.44276 15.8981 8.25 16.0909 8.25 16.3278V19.7653Z" fill="#4C51CB"/>
</g>
<defs>
<clipPath id="clip0">
<rect width="22" height="22" fill="white"/>
</clipPath>
</defs>
</svg>

<svg width="22" height="22" fill="none" xmlns="http://www.w3.org/2000/svg"><g clip-path="url(#clip0)"><path fill-rule="evenodd" clip-rule="evenodd" d="M19.852 6.373v.615A4.89 4.89 0 0122 11.04c0 1.57-.645 2.898-1.865 3.84-1.02.788-2.038.999-2.049 1.001a.86.86 0 01-.343-1.684c.074-.018 2.538-.634 2.538-3.157 0-1.18-.648-2.257-1.692-2.81a.859.859 0 01-.456-.79V6.373a4.144 4.144 0 00-4.139-4.138c-2.022 0-3.78 1.504-4.09 3.499a.86.86 0 01-1.493.437 2.107 2.107 0 00-1.579-.714 2.108 2.108 0 00-2.105 2.106V9.11a.86.86 0 01-.86.859h-.006c-1.181 0-2.142.945-2.142 2.106 0 1.18.906 2.105 2.062 2.105h.473a.86.86 0 110 1.719h-.473c-1.025 0-1.981-.4-2.692-1.127A3.832 3.832 0 010 12.075c0-1.819 1.288-3.345 3.008-3.73v-.782A3.822 3.822 0 018.57 4.158a5.856 5.856 0 0111.28 2.216zm-6.275 7.119v.703a2.151 2.151 0 011.892 2.133v4.297a.86.86 0 01-.86.859H7.391a.86.86 0 01-.86-.86v-4.296c0-1.097.827-2.004 1.89-2.133v-.703c0-1.398 1.157-2.535 2.578-2.535 1.422 0 2.578 1.137 2.578 2.535zM11 12.676c-.474 0-.86.366-.86.816v.687h1.72v-.687c0-.45-.386-.816-.86-.816zm-2.749 7.09h5.5v-3.438a.43.43 0 00-.43-.43H8.68a.43.43 0 00-.43.43v3.437z" fill="#4C51CB"/></g><defs><clipPath id="clip0"><path fill="#fff" d="M0 0h22v22H0z"/></clipPath></defs></svg>
